src/public/img/statistics/WW.svg

<svg width="21" height="16" viewBox="0 0 21 16" fill="none" xmlns="http://www.w3.org/2000/svg">
<rect y="0.5" width="21" height="15" rx="2" fill="white"/>
<mask id="mask0_3053_8513" style="mask-type:alpha" maskUnits="userSpaceOnUse" x="0" y="0" width="21" height="16">
<rect y="0.5" width="21" height="15" rx="2" fill="white"/>
</mask>
<g mask="url(#mask0_3053_8513)">
<rect y="0.5" width="21" height="15" fill="#3370EB"/>
<path fill-rule="evenodd" clip-rule="evenodd" d="M10.5 13.5C13.5376 13.5 16 11.0376 16 8C16 4.96243 13.5376 2.5 10.5 2.5C7.46243 2.5 5 4.96243 5 8C5 11.0376 7.46243 13.5 10.5 13.5ZM14.9725 8.5C14.7869 10.1794 13.6771 11.5802 12.163 12.1827C12.6505 11.1897 12.9354 9.89602 12.9902 8.5H14.9725ZM11.9892 8.5C11.9162 10.1868 11.4758 11.6776 10.7891 12.4909C10.6935 12.4969 10.5971 12.5 10.5 12.5C10.4029 12.5 10.3065 12.4969 10.2109 12.4909C9.5242 11.6776 9.08378 10.1868 9.01077 8.5H11.9892ZM8.00977 8.5C8.06463 9.89602 8.34946 11.1897 8.83701 12.1827C7.3229 11.5802 6.21311 10.1794 6.02746 8.5H8.00977ZM9.01077 7.5H11.9892C11.9162 5.81322 11.4758 4.32243 10.7891 3.50914C10.6935 3.50308 10.5971 3.5 10.5 3.5C10.4029 3.5 10.3065 3.50308 10.2109 3.50914C9.5242 4.32243 9.08378 5.81322 9.01077 7.5ZM8.83701 3.81727C8.34945 4.81029 8.06463 6.10398 8.00977 7.5H6.02746C6.21311 5.82063 7.32289 4.41978 8.83701 3.81727ZM14.9725 7.5H12.9902C12.9354 6.10398 12.6505 4.81029 12.163 3.81727C13.6771 4.41978 14.7869 5.82062 14.9725 7.5Z" fill="white"/>
</g>
</svg>

<svg xmlns="http://www.w3.org/2000/svg" width="21" height="16" fill="none">
  <rect width="21" height="15" y=".5" fill="#fff" rx="2"/>
  <mask id="a" width="21" height="16" x="0" y="0" maskUnits="userSpaceOnUse" style="mask-type:alpha">
    <rect width="21" height="15" y=".5" fill="#fff" rx="2"/>
  </mask>
  <g mask="url(#a)">
    <path fill="#3370EB" d="M0 .5h21v15H0z"/>
    <path fill="#fff" fill-rule="evenodd" d="M10.5 13.5a5.5 5.5 0 1 0 0-11 5.5 5.5 0 0 0 0 11Zm4.473-5a4.504 4.504 0 0 1-2.81 3.683c.487-.993.772-2.287.827-3.683h1.982Zm-2.984 0c-.073 1.687-.513 3.178-1.2 3.99a4.615 4.615 0 0 1-.578 0c-.687-.812-1.127-2.303-1.2-3.99h2.978Zm-3.98 0c.056 1.396.34 2.69.828 3.683A4.504 4.504 0 0 1 6.027 8.5H8.01Zm1.002-1h2.978c-.073-1.687-.513-3.178-1.2-3.99a4.57 4.57 0 0 0-.578 0c-.687.812-1.127 2.303-1.2 3.99Zm-.174-3.683c-.488.993-.772 2.287-.827 3.683H6.027a4.504 4.504 0 0 1 2.81-3.683ZM14.973 7.5H12.99c-.055-1.396-.34-2.69-.827-3.683a4.504 4.504 0 0 1 2.81 3.683Z" clip-rule="evenodd"/>
  </g>
</svg>
